star-off-outline.svg

<svg fill="currentColor" viewBox="0 0 24 24"><path d="M22.1 21.5 2.4 1.7 1.1 3l5.8 5.8-4.9.4L7.5 14l-1.6 7 6.2-3.7 6.2 3.7-.3-1.2 2.9 2.9zm-6.3-3.8L12 15.4l-3.8 2.3 1-4.3-3.3-2.9 2.5-.2zM11.2 8 10 6.8 12 2l2.8 6.6 7.2.6-5.1 4.4-1.1-1.1 2.4-2-4.4-.4-1.7-4z"/></svg>

<svg  viewBox="0 0 24 24" fill="currentColor"><path  d="M22.1 21.5L2.4 1.7L1.1 3L6.9 8.8L2 9.2L7.5 14L5.9 21L12.1 17.3L18.3 21L18 19.8L20.9 22.7L22.1 21.5M15.8 17.7L12 15.4L8.2 17.7L9.2 13.4L5.9 10.5L8.4 10.3L15.8 17.7M11.2 8L10 6.8L12 2L14.8 8.6L22 9.2L16.9 13.6L15.8 12.5L18.2 10.5L13.8 10.1L12.1 6.1L11.2 8Z"/></svg>
